X: 21511
T: Kid On The Mountain, The
R: slip jig
M: 9/8
K: Eminor
|:E3 FEF G3|E3 BcA BGD|E3 FEF G2 A|BAG FAG FED:|
|:BGB AFD G2 D|GB/c/d dge dBA|BGB AFA G2 A|BAG FAG FED|
BF/G/B AF/G/A G2 D|GB/c/d dge dBA|BF/G/B AF/G/A G2 A|BAG FAG FED||
|:g3 eBe e2 f|g3 efg afd|g3 eBe ega|bag fag fed:|
|:eBB e2f g3|eBB efg afd|eBB e2f g2a|bag fag fed:|
|:edB dBA G2D|GB/c/d dge dBA|edB dBA G2A|BAG FAG FED:|

